X: 128003
T: AMERICAN AIR
%R: march
B: James Kerr "Merry Melodies" v.1 p.28 s.0 #3
Z: 2016 John Chambers <jc:trillian.mit.edu>
M: 2/4
L: 1/16
K: Am
[|\
vABcd e2e2 | e^def edcB |\
ABcd e2a2 | edcB A4 |\
vABcd e^def | e^def edcB |\
ABcd e^dea | edcB A4 H|]
|:\
vA2a2A2a2 | gece g4 |\
vA2a2A2a2 | gece g4 |\
vA2a2A2a2 | gecd e2(cd) |\
ecdB ABcd | edcB "_D.C."A4 :|

%%sep 1 1 500
%%sep 1 1 500

